X:276
T:Steirer (74.)
C:traditionell
A:Salzkammergut
S:MIDI erhalten von Christian Amon. Nach einer kopie im besitz von Johann Stoeckl eines manuscriptes. Stoeckl(zitiert von Amon): "diese sammlung wurde 1935 im hause der familie Hohenlohe-Schillingfuerst gefunden. Sie wurde von einem der beiden brueder Steinegger 1866 verfasst. Die originale sind im Ausseer Kammerhofmuseum".
M:3/4
L:1/8
K:G
V:1
d>d dB gd | c>c cA f2 | cc/c/ cA fc | d>d dB g2 |\
d>d dB gd | c>c cA f2 | cc/c/ cA fc | B4 z2 |*
V:2
B>B BG dB | A>A AF d2 | AA/A/ AF dA |B>B BG d2 |\
B>B BG dB | A>A AF d2 | AA/A/ AF dA | G4 z2 |*
